src/lib/packages/icons/src/assets/filled/octagon-times.svg

<svg width="24" height="24" viewBox="0 0 24 24" fill="none" xmlns="http://www.w3.org/2000/svg">
<path d="M20.561 7.56104L16.4399 3.43994C16.1589 3.15894 15.7769 3.00098 15.3789 3.00098H8.62207C8.22407 3.00098 7.84304 3.15894 7.56104 3.43994L3.43994 7.56104C3.15894 7.84204 3.00098 8.22407 3.00098 8.62207V15.3789C3.00098 15.7769 3.15894 16.1579 3.43994 16.4399L7.56104 20.561C7.84204 20.842 8.22407 21 8.62207 21H15.3789C15.7769 21 16.1579 20.842 16.4399 20.561L20.561 16.4399C20.842 16.1589 21 15.7769 21 15.3789V8.62207C21 8.22407 20.842 7.84204 20.561 7.56104ZM15.03 13.97C15.323 14.263 15.323 14.738 15.03 15.031C14.884 15.177 14.692 15.251 14.5 15.251C14.308 15.251 14.116 15.178 13.97 15.031L12 13.061L10.03 15.031C9.88403 15.177 9.692 15.251 9.5 15.251C9.308 15.251 9.11597 15.178 8.96997 15.031C8.67697 14.738 8.67697 14.263 8.96997 13.97L10.9399 12L8.96997 10.03C8.67697 9.73703 8.67697 9.26199 8.96997 8.96899C9.26297 8.67599 9.73801 8.67599 10.031 8.96899L12.001 10.939L13.9709 8.96899C14.2639 8.67599 14.739 8.67599 15.032 8.96899C15.325 9.26199 15.325 9.73703 15.032 10.03L13.062 12L15.03 13.97Z" fill="currentColor"/>
</svg>

<svg xmlns="http://www.w3.org/2000/svg" width="24" height="24" fill="none"><path fill="currentColor" d="M20.561 7.561 16.44 3.44A1.5 1.5 0 0 0 15.379 3H8.622c-.398 0-.779.158-1.061.439L3.44 7.56A1.5 1.5 0 0 0 3 8.622v6.757c0 .398.158.779.439 1.06l4.121 4.122A1.5 1.5 0 0 0 8.621 21h6.757c.398 0 .779-.158 1.06-.439l4.122-4.121a1.5 1.5 0 0 0 .44-1.061V8.622a1.5 1.5 0 0 0-.439-1.061ZM15.03 13.97a.75.75 0 0 1-1.06 1.061L12 13.061l-1.97 1.97a.748.748 0 0 1-1.06 0 .75.75 0 0 1 0-1.061L10.94 12l-1.97-1.97a.75.75 0 1 1 1.061-1.061l1.97 1.97 1.97-1.97a.75.75 0 0 1 1.061 1.061L13.062 12l1.968 1.97Z"/></svg>
